X:372
T: Wo ist denn das Mdchen (4-71), S. 91
N: P0642
O: Lothringen
S: PINCK, Louis: Verklingende Weisen Bd 4, Kassel 1939]
R: Liebe, Brautwerbung]
M: 3/4
L: 1/8
K: F
C2 | F3EF2 | G3F
G2 | A2c2BA | G2z2
FA | c2c2dc | BAG2
GA | B2d2cB | AGF2
FG | A3GA2 | c3B
A2 | B2A2G2 | F2z2

